X:25
T: Das Maedchen und der Faehnrich
N: Q0127F
O: Mitteleuropa, Deutschland (DDR) , Brandenburg, Birkenwerder
R: Ballade, verbotene Liebe, Flucht
M: 4/4
L: 1/8
K: G
GA | _BcBAG2AB | cdc_BA2
c2 | d2d2G2c2 | _B2A2G2
G2 | d3cd2_e2 | c3_Bc2
d2 | _B2A2B2d2 | c2_B2A2
GA | _BcBAG2AB | cdc_BA2
c2 | d2d2G2c2 | _B2A2G2

@@@ Tune index: 1523
